packages/elvis-assets-icons/icons/svg/src/list_bullets-bold.svg

<svg width="24" height="24" viewBox="0 0 24 24" fill="none" xmlns="http://www.w3.org/2000/svg">
<path d="M2.5 5.49799C3.88071 5.49799 5 4.3787 5 2.99799C5 1.61727 3.88071 0.497986 2.5 0.497986C1.11929 0.497986 0 1.61727 0 2.99799C0 4.3787 1.11929 5.49799 2.5 5.49799Z" fill="black"/>
<path d="M8.5 4.19999H23C23.2652 4.19999 23.5196 4.07356 23.7071 3.84852C23.8946 3.62347 24 3.31825 24 2.99999C24 2.68173 23.8946 2.3765 23.7071 2.15146C23.5196 1.92642 23.2652 1.79999 23 1.79999H8.5C8.23478 1.79999 7.98043 1.92642 7.79289 2.15146C7.60536 2.3765 7.5 2.68173 7.5 2.99999C7.5 3.31825 7.60536 3.62347 7.79289 3.84852C7.98043 4.07356 8.23478 4.19999 8.5 4.19999Z" fill="black"/>
<path d="M2.5 14.498C3.88071 14.498 5 13.3787 5 11.998C5 10.6173 3.88071 9.49799 2.5 9.49799C1.11929 9.49799 0 10.6173 0 11.998C0 13.3787 1.11929 14.498 2.5 14.498Z" fill="black"/>
<path d="M23 10.8H8.5C8.23478 10.8 7.98043 10.9264 7.79289 11.1515C7.60536 11.3765 7.5 11.6817 7.5 12C7.5 12.3182 7.60536 12.6235 7.79289 12.8485C7.98043 13.0736 8.23478 13.2 8.5 13.2H23C23.2652 13.2 23.5196 13.0736 23.7071 12.8485C23.8946 12.6235 24 12.3182 24 12C24 11.6817 23.8946 11.3765 23.7071 11.1515C23.5196 10.9264 23.2652 10.8 23 10.8Z" fill="black"/>
<path d="M2.5 23.498C3.88071 23.498 5 22.3787 5 20.998C5 19.6173 3.88071 18.498 2.5 18.498C1.11929 18.498 0 19.6173 0 20.998C0 22.3787 1.11929 23.498 2.5 23.498Z" fill="black"/>
<path d="M23 19.8H8.5C8.23478 19.8 7.98043 19.9264 7.79289 20.1515C7.60536 20.3765 7.5 20.6817 7.5 21C7.5 21.3182 7.60536 21.6235 7.79289 21.8485C7.98043 22.0736 8.23478 22.2 8.5 22.2H23C23.2652 22.2 23.5196 22.0736 23.7071 21.8485C23.8946 21.6235 24 21.3182 24 21C24 20.6817 23.8946 20.3765 23.7071 20.1515C23.5196 19.9264 23.2652 19.8 23 19.8Z" fill="black"/>
</svg>

<svg width="24" height="24" fill="none" xmlns="http://www.w3.org/2000/svg"><path d="M2.5 5.498a2.5 2.5 0 100-5 2.5 2.5 0 000 5zM8.5 4.2H23c.265 0 .52-.126.707-.351.188-.226.293-.53.293-.849 0-.318-.105-.623-.293-.849A.924.924 0 0023 1.8H8.5a.924.924 0 00-.707.351c-.188.226-.293.53-.293.849 0 .318.105.623.293.849A.924.924 0 008.5 4.2zM2.5 14.498a2.5 2.5 0 100-5 2.5 2.5 0 000 5zM23 10.8H8.5a.924.924 0 00-.707.351c-.188.226-.293.53-.293.849 0 .318.105.623.293.848a.924.924 0 00.707.352H23c.265 0 .52-.126.707-.351.188-.226.293-.53.293-.849 0-.318-.105-.623-.293-.848A.924.924 0 0023 10.8zM2.5 23.498a2.5 2.5 0 100-5 2.5 2.5 0 000 5zM23 19.8H8.5a.924.924 0 00-.707.351c-.188.226-.293.53-.293.849 0 .318.105.623.293.849a.924.924 0 00.707.351H23c.265 0 .52-.126.707-.351.188-.226.293-.53.293-.849 0-.318-.105-.623-.293-.849A.924.924 0 0023 19.8z" fill="#000"/></svg>
